X:1
T:There, where I saw - Wilbye
T:#
%%score 1 2 3 4
L:1/8
Q:1/4=120
M:4/4
K:C
V:1 treble nm="Soprano I"
V:2 treble nm="Soprano II"
V:3 treble nm="Alto" snm="A"
V:4 treble-8 nm="Tenor" snm="T"
V:1
"^John Wilbye\n (1574-1638)""^There, where I saw her lovely beauty painted" z8 | z8 | z8 | z8 | %4
w: ||||
 z8 | z8 |[M:4/4]!p! E4 A4- | A4 ^G4 | A6 =G2 | F4 F4 | E8 | E8- | E4 c4 | e8 | d8 | c4 A4 | c8- | %17
w: ||There, where|* I|saw her|love- ly|beau-|ty,|* her|love-|ly|beau- ty|paint\-|
 c4 B4 | z8 | z8 | z4 z2"^cresc." g2 | e2 c2 e2 d2 | c2 c2 c2 B2 | c2 G2 z4 | z8 | z8 | %26
w: * ed,|||Where,|Ve- nus- like, my|sa- cred god- dess|shin- eth,|||
 z2!p! B2 B2"^*precellent=surpassing" c2 | G6 G2 | G8 | E2 e4 (d2- | d2 c2) B4 | A8 | z8 | z8 | %34
w: There, with *pre-|cel- lent|ob-|ject mine eyes|* * faint-|ed,|||
 z8 | z8 | z8 | z8 | z8 | z4!f! d4 | d3 c B2 A2 | G6 d2 | d3 c B2 A2 | G8 | z8 | z4!p! A4- | %46
w: |||||That|fair, but fa- tal|star, that|fair, but fa- tal|star,||my|
 A4 c4- | c4 _B4 | A8- | A8 | A8 | z4 z2!f! c2 | c2 c2 c2 d2 | e3 f g2 e2 | (d2 e2 d4) | e4 z4 | %56
w: * dole|* di-|vin\-||eth.|As|soon as morn- ing|in her light ap-|pear\- * *|eth,|
 z8 | z2 d2 d3 c | B3 A G2 c2 | d2 d2 e4 | d4 z4 | ^f4 g3 =f | e2 d2 c2 B2 | A2 G2 A4 | G8 | %65
w: |Her sweet sa-|lute, my mind o'er-|cloud- ed, clear-|eth,|her sweet sa-|lute, my mind o'er-|cloud- ed, clear-|eth;|
 z4!pp! c4- | c4 B2 A2 | ^G4 A4 | B8- | B4 (A4- | A4 ^G4) | A6 =G2 | (^F4 G4) | A8 | z8 | A4 d4- | %76
w: When|* night a-|gain the|day's|* de\-||light be-|reav\- *|eth,||My heart's|
 d4 ^c4 | (B8 | ^c4) d4 | e8- | e4 z4 | z4 A4 | e2 ^c2 (B4- | B2 AG ^F4) | ^G2"^cresc." G2 A2 B2 | %85
w: * true|sa\-|* cri-|fice||she|quick re- ceiv\-||eth: But night and|
 c4 (B2 c2) | d3 c AB (c2- | c2 BA B4) | c8 | z8 | z4!pp! A4- | A4 ^c4- | c4 B4 | A8- | A4 G4 | %95
w: day she *|craf- ti- ly for- sakes||me;||To|* te\-|* dious|day,|* to|
 ^F8- | F4 E4 | E2 B2 e4- | e4 d4 | ^c8 | A4 (B4- | B2 A2 A4- | A4 ^G4) | A6 B2 | ^c6 d2 | e4 e4- | %106
w: loath\-|* some|night, to loath\-|* some|night|be- takes|||me, to|te- dious|day, to|
 e4 g4- | g4 ^f4 | e6 e2 | e8 | e16 |] %111
w: * loath\-|* some|night be-|takes|me.|
V:2
 z4!p! E4- | E4 A4- | A4 ^G4 | A6 =G2 | F4 E4 | E4 D4 |[M:4/4] E8- | E4 E4 | z4 A4- | A4 B4 | %10
w: There,|* where|* I|saw her|love- ly|beau- ty|paint\-|* ed,|there,|* where|
 ^G4 A4- | A4 ^G4 | c6 (BA) | =G4 A4 | B8 | E4 z4 | e4 e4- | e4 d4- | d4 c4- | c4 B4 | c8 | c4 z4 | %22
w: I saw|* her|love- ly *|beau- ty|paint-|ed,|her love\-|* ly|* beau\-|* ty|paint-|ed,|
 z4 z2"^cresc." d2 | e2 c2 e2 d2 | c2 c2 c2 B2 | c4 G4 |!p! ^G4 G2 A2 | (E6 DC | D2) C2 E2 D2 | %29
w: Where|Ve- nus- like, my|sa- cred god- dess|shin- eth,|There, with pre-|cel\- * *|* lent ob- ject|
 C2 c4 (B2- | BA A4 ^G2) | A4 z4 | z8 | z8 | z8 | z8 | z4 z2!p! A2 | A2 B2 G2 (AB) | c6 B2 | %39
w: mine eyes faint\-||ed,|||||there,|with pre- cel- lent *|ob- ject|
 A2 G2 (B2 A2) | G4 z2!f! d2 | d3 c B2 A2 | G4 z2 d2 | d3 c B2 B2 |!p! A8- | A8 | z4 A4- | A4 G4- | %48
w: mine eyes faint\- *|ed, That|fair, but fa- tal|star, that|fair, but fa- tal|star||my|* dole|
 G2 G2 F4 | E4 z2!f! E2 | F2 F2 F3 G | A2 _B2 A4 | z8 | z8 | z4 z2 G2 | G3 G G2 A2 | B3 c d2 B2 | %57
w: * di- vin-|eth. As|soon as morn- ing|in her light,|||as|soon as morn- ing|in her light ap-|
 (A2 B2) A4 | z8 | z8 | z4 G4 | d3 c B2 G2 | c2 B2 A2 G2 | d8 | d8 | z4!pp! e4- | e4 d2 c2 | %67
w: pear\- * eth,|||Her|sweet sa- lute, my|mind o'er- cloud- ed,|clear-|eth;|When|* night a-|
 B4 c4 | d8- | d4 c4 | B4 B4 | ^c4 A4- | A4 z4 | D4 A4- | A4 G4 | ^F4 F4 | E8 | z8 | z4 A4- | %79
w: gain the|day's|* de-|light be-|reav- eth,||My heart's|* true|sa- cri-|fice,||my|
 A4 ^c4- | c4 B4 | A4 A4 | ^G4 z4 | z8 | z2"^cresc." B2 c2 d2 | e4 (d2 e2) | f3 e c2 c2 | d8 | %88
w: * heart's|* true|sa- cri-|fice:||But night and|day she *|craf- ti- ly for-|sakes|
 c4!pp! B2 (A2- | A2 ^G^F G4 | A4) ^F4 | E8 | z8 | z8 | z8 | A4 d4- | d4 ^c4 | B8- | B4 z4 | z8 | %100
w: me; To te\-||* dious|day,||||to te\-|* dious|day,|||
 d4 ^f4- | f4 e4 | d4 d4 | (^c6 d2) | e4 z4 | z2 ^c2 B2 A2 | ^G2 E2 e4- | e4 (d2 ^c2) | B4 A4 | %109
w: to loath\-|* some|night be-|takes *|me,|to te- dious|day, to loath\-|* some *|night be-|
 B8 | ^c16 |] %111
w: takes|me.|
V:3
!p! C8 | E8 | D8 | C8- | C4 B,4 | A,4 A,4 |[M:4/4] ^G,4 C4 | B,8 | A,8 | A,4 D4- | D4 C4 | B,8 | %12
w: There,|where|I|saw|* her|love- ly|beau~- ty|paint-|ed,|there, where|* I|saw|
 A,2 A4 (=GF) | E4 E4 | z4 B,4 | C4 F4 | E4 C4 | G6 G2 | A4 G4 | F8 | E6"^cresc." E2 | E3 F G2 F2 | %22
w: her love- ly *|beau- ty,|there,|where I|saw her|love- ly|beau- ty|paint-|ed, Where,|Ve- nus- like, my|
 E2 C2 E2 D2 | C4 G,2 D2 | G2 A2 G2 G2 | G4 E4 |!p! E4 E2 A,2 | (C6 B,A, | B,2) C2 G,2 G,2 | %29
w: sa- cred god- dess|shin- eth, my|sa- cred god- dess|shin- eth,|There, with pre-|cel\- * *|* lent ob- ject|
 (A,3 B,) (C2 D2) | E4 E4 | z2!mf! E2 E2 F2 | C6 C2 | C8 | A,2 A4 (G2- | G2 F2) E4 | D6!p! F2 | %37
w: mine * eyes *|faint- ed,|there, with pre-|cel- lent|ob-|ject mine eyes|* * faint-|ed, there,|
 F2 G2 E4- | E2 D2 E2 G2 | ^F2 (G4 F2) | G4 D4- | D4 z2!f! A,2 | (B,A,B,C D2) A,2 | %43
w: with pre- cel|* lent ob- ject|mine eyes *|faint- ed,|* That|fair * * * * but|
 B,2 G,2 G2!p! F2 | E4 F4 | E8 | D6 (CD) | E4 D4 | (^C4 D4- | D4 ^C4) | D6!f! F2 | F3 F F2 G2 | %52
w: fa- tal star my|dole di-|vin-|eth, my *|dole di-|vin\- *||eth. As|soon as morn- ing|
 A3 A G2 F2 | G2 G2 G3 A | B2 c2 (c2 B2) | c4 z4 | z8 | z4 z2 D2 | G3 F E2 (DC) | B,4 C4 | D4 E4 | %61
w: in her light, as|morn- ing in her|light ap- pear\- *|eth,||Her|sweet sa- lute, my *|mind o'er-|cloud- ed,|
 D8 | C2 D2 (EFGE | ^F2) G2 (G2 F2) | G4!pp! D4 | E6 ^F2 | ^G6 A2 | B4 E4 | F4 F4 | E8- | E8 | E8 | %72
w: clear-|eth, o'er- cloud\- * * *|* ed, clear\- *|eth; When|night a-|gain the|day's de-|light be-|reav\-||eth,|
 D8- | D4 ^F4- | F4 E4 | D6 ^C2 | B,4 (A,4- | A,4 ^G,4) | (A,6 B,2 | ^C2 D2 E4) | E4 (E4- | %81
w: My|* heart's|* true|sa- cri-|fice she||quick *||re- ceiv\-|
 E4 ^D4) | E6 E2 | ^F2 (GA) B4 | B4 z2"^cresc." =G2 | G6 G2 | (F3 G A2) E2 | G8 | G4!pp! E4 | %89
w: |eth, she|quick re\- * ceiv-|eth: she|craf- ti-|ly * * for-|sakes|me; To|
 D4 D4 | ^C4 D4- | D4 ^C2 D2 | E4 D4- | D4 (^C4- | C4 B,4) | A,8- | A,4 A4 | ^G6 A2 | B4 B4 | %99
w: te- dious|day, to|* loath- some|night be\-|* takes||me,|* to|te- dious|day, to|
 (A4 =G4 | ^F4) D4 | A4 A,4 | B,8 | ^C2 A,2 (A4- | A4 ^G2) ^F2 | E8- | E4 B,4 | E4 ^F4 | ^G4 A4 | %109
w: loath\- *|* some|night be-|takes|me, to te\-|* * dious|day,|* to|loath- some|night be-|
 (A4 ^G4) | A16 |] %111
w: takes *|me.|
V:4
!p! A8 | c8 | B8 | A8- | A4 G4 | F8 |[M:4/4][K:treble-8] E8- | E8 | F8 | D8 | E8 | E8 | z4 E4- | %13
w: There,|where|I|saw|* her|love-|ly||beau-|ty|paint-|ed,|there,|
 E4 A4- | A4 ^G4 | A8- | A8 | z2 G2 d2 e2 | f4 c4 | d8 | G2"^cresc." g2 e2 c2 | g8- | g4 z2 g2 | %23
w: * where|* I|saw||her love- ly|beau- ty|paint-|ed, Where, Ve- nus-|like,|* where,|
 e3 f g2 f2 | e2 f2 d2 d2 | e4 c4 | z8 | z8 | z8 | z8 | z8 |!mf! ^c4 c2 d2 | (A6 GF | %33
w: Ve- nus- like, my|sa- cred god- dess|shin- eth,||||||There, with pre-|cel\- * *|
 G2) F2 A2 G2 | F2 f4 (e2- | ed d4 ^c2) | d6!p! d2 | d2 G2 c4- | c2 B2 A2 G2 | d2 e2 d4 | %40
w: * lent ob- ject|mine eyes faint\-||ed, there,|with pre- cel\-|* lent ob- ject|mine eyes faint-|
 d4 z2!f! ^F2 | G3 A (Bc) d2 | d4 z2 D2 | G3 A (Bc) d2 |!p! ^c2 A2 d4- | d4 ^c4 | d4 A4 | %47
w: ed, That|fair, but fa\- * tal|star, that|fair, but fa\- * tal|star my dole|* di-|vin- eth,|
 z4 (g2 f2) | e4 d4 | e8 | d6!f! d2 | d3 d d2 e2 | f3 f e2 d2 | (c4 B2 c2) | g4 g4 | e3 e d2 c2 | %56
w: my *|dole di-|vin-|eth. As|soon as morn- ing|in her light ap-|pear\- * *|eth, as|soon as morn- ing|
 d2 d2 d3 e | (^f2 g4 f2) | g6 g2 | g3 f e2 (dc) | B4 c4 | (A2 d3 cBA | G2 AB c4- | c2) B2 A4 | %64
w: in her light ap-|pear\- * *|eth, Her|sweet sa- lute, my *|mind o'er-|cloud\- * * * *||* ed, clear-|
 B4!pp! B4 | ^G4 E4 | e8- | e8 | z4 z2 d2 | ^G4 A4 | B8 | A8- | A4 B4 | A8- | A4 z4 | z8 | z4 e4 | %77
w: eth; When|night a-|gain||the|day's de-|light|be\-|* reav-|eth,|||My|
 e8- | e4 ^f4 | e8- | e4 B4 | ^c4 A4 | B6 g2 | (^f2 e4 ^d2) | e6"^cresc." B2 | G2 A2 B4 | %86
w: heart's|* true|sa\-|* cri-|fice she|quick re-|ceiv\- * *|eth: But|night and day|
 A2 f3 e c2 | g4 d4 | e4!pp! c4 | B6 B2 | A8- | A8 | ^G8 | A8 | e8 | d8 | z4 A4 | B8- | B4 B4 | %99
w: she craf- ti- ly|for- sakes|me; To|te- dious|day,||to|loath-|some|night,|to|loath\-|* some|
 ^c4 e4 | d4 d4 | z8 | d8 | (^f4 e2) d2 | ^c2 (A4 B2) | ^c4 d4 | e8 | A4 (d4- | d4 ^c4 | B8) | %110
w: night be-|takes me,||to|te\- * dious|day, to *|loath- some|night|be- takes|||
 A16 |] %111
w: me.|

